X:1
T:O Salutaris Hostia
T:Jacob Handl
T:O Salutaris Hostia
C:Jacob Handl
%%score [ 1 2 3 4 ]
L:1/8
Q:1/2=116
M:4/2
K:G
V:1 treble nm="P1" snm="S."
V:2 treble nm="P2" snm="A."
V:3 treble-8 transpose=-12 nm="P3" snm="T."
V:4 bass nm="P4" snm="B."
V:1
 G16 | G12 A4 | B8 B8 | A12 A4 | B4 B4 d6 c2 | B4 A4 G6 A2 | B4 E2 F2 G2 A2 B4 | A4 G4 A4 A4- | %8
w: O|sa- lu-|ta- ris|ho- sti-|a, quae coe- *|* li pan- *|* dis _ _ _ _|o- sti- um, quae|
 A4 d6 c2 B4- | B4 B4 c4 B4 | A12 A4 | A4 A4 d6 c2 | B8 B8- | B8 A8 | A4 B6 A2 G2 F2 | %15
w: _ coe- * *|* li pan- dis|o- sti-|um, quae coe- *|* li|_ pan-|dis o- * * *|
 E2 F2 G8 F4 | G16- | G8 z8 | d8 B4 d4 | c4 B4 A4 c4 | d8 z4 B4 | G4 B4 A4 G4 | d4 c4 B8- | B8 B8 | %24
w: * * * sti-|um,|_|bel- la pre-|munt ho- sti- li-|a, bel-|la pre- munt ho-|sti- li- a,|_ bel-|
 G4 B4 A4 G4 | F4 A4 B8 | z4 G4 E4 G4 | F4 E4 D4 F4 | G8 z4 G4 | D4 G4 F4 F4 | D6 D2 G4 B4 | %31
w: la pre- munt ho-|sti- li- a,|bel- la pre-|munt ho- sti- li-|a, bel-|la pre- munt ho-|sti- li- a, ho-|
 A4 G4 F8 | G4 E8 ^D4 | E16 | z4 G4 c8 | A8 d8 | B8 e6 d2 | c4 B4 A8 | z4 D4 G8 | E8 A8 | %40
w: sti- li- a,|ho- sti- li-|a,|da ro-|bur, fer|au- xi- *|* li- um,|da ro-|bur, fer|
 F8 B6 A2 | G6 F2 E2 F2 G4- | G4 F2 E2 F4 F4 | G8 z4 G4 | c8 A8 | d8 B8 | e6 d2 c2 B2 A2 G2 | %47
w: au- xi- *||* * * * li-|um, da|ro- bur,|fer au-|xi- * * * * *|
 F2 D2 G8 F4 | G6 A2 B8 | z16 | z8 G8 | c8 A8 | d8 B8- | B4 e6 d2 c2 B2 | A2 D2 d6 c2 B4- | %55
w: * * * li-|um, _ _||da|ro- bur,|fer au-|* xi- * * *||
 B2 A2 G8 F4 | G16- | G16- | G16 |] %59
w: * * * li-|um.|_||
V:2
 D16 | E8 E8 | G8 G4 G4- | G4 F4 E6 F2 | G16 | z8 D8 | G6 F2 E4 D4 | ^C4 D4 E8 | F6 E2 F4 G4 | %9
w: O|sa- lu-|ta- ris ho-|* ti- a _|_|quae|coe- * * li|pan- dis o-|* * * sti-|
 G,4 D4 G6 F2 | E4 D8 ^C4 | D8 F4 F4 | G8 z4 G,4 | G6 F2 E8 | F8 G4 E4 | B,6 C2 D4 D4 | B,16 | %17
w: um, quae coe- *|* li pan-|dis, o- sti-|um, quae|coe- * *|li pan- dis|o- * * sti-|um,|
 z16 | z8 G8 | E4 G4 F4 E4 | D4 F4 G8 | z4 G4 D4 G4 | F4 E4 D6 E2 | F4 G4 F8 | z4 E4 C4 E4 | %25
w: |bel-|la pre- munt ho-|sti- li- a,|bel- la- pre-|munt ho- sti- *|* li- a,|bel- la- pre-|
 D4 C4 B,4 D4 | E8 z8 | z8 D8 | B,4 D4 C4 B,4 | A,4 B,4 D8 | z4 G4 E4 G4 | F2 E2 E8 ^D4 | %32
w: munt ho- sti- li-|a,|bel-|la pre- munt ho-|sti- li- a,|bel- la pre-|munt _ _ ho-|
 E4 B,4 B,8- | B,4 G,4 G8 | E8 A8 | F8 B6 A2 | G6 F2 E2 D2 E4- | E2 F2 G8 F4 | G8 z4 G,4 | C8 A,8 | %40
w: sti- li- a,|_ da ro-|bur, fer|au- xi- *||* * * li-|um, da|ro- bur,|
 D8 B,8 | E6 D2 B,4 C4 | D8 z4 D4- | D4 G8 E4 | A8 F8 | B6 A2 G6 F2 | E12 E4 | D16 | z4 D4 G8 | %49
w: fer au-|xi- * * li-|um, da|_ ro- bur,|fer au-|xi- * * *|* li-|um,|da ro-|
 E8 A8 | F4 B6 A2 G4- | G2 E2 G8 F2 E2 | F4 F4 G4 D4 | G8 E4 A4 | F8 G4 D4 | E4 B,4 D8 | %56
w: bur, fer|au- xi- * *||* li- um, da|ro- bur, fer|au- xi- li-|um, da ro-|
 B,4 D8 D4 | E12 E4 | D16 |] %59
w: bur, fer au-|xi- li-|um.|
V:3
 G8 B8- | B8 c8 | d8 d4 e4- | e2 d2 d8 ^c4 | d8 B8 | d6 c2 B8 | G4 c8 B4 | e2 d2 d8 ^c4 | %8
w: O sa-|* lu-|ta- ris ho-|* * * sti-|a, quae|coe- * *|li pan- dis|o- * * sti-|
 d6 =c2 B4 G4 | g6 f2 e4 d4 | ^c4 d4 e4 e4 | f6 e2 d2 c2 B2 A2 | G4 d4 g6 f2 | e2 d2 d8 ^c4 | %14
w: um, _ _ quae|coe- * * li-|pan- dis o- sti-|um, _ _ _ _ _|_ quae coe- *|* * li pan-|
 d6 =c2 B6 A2 | G8 A6 A2 | G4 d4 B4 d4 | c4 B4 A4 c4 | d8 z8 | z16 | z4 d4 B4 d4 | c4 B4 d4 e4 | %22
w: dis _ _ _|_ o- sti-|um, bel- la pre-|munt ho- sti- li-|a,||bel- la- pre-|munt ho- sti- li-|
 A4 c4 G2 A2 B2 c2 | d2 B2 e8 ^d4 | e8 z8 | z8 z4 B4 | G4 B4 A4 G4 | A2 B2 c2 G2 B4 A4 | G8 z8 | %29
w: a, ho- sti- * * *|* * * li-|a,|bel-|la pre- munt ho-|sti- * * * * li-|a,|
 z8 z4 d4 | B4 d4 c4 B4 | d4 e4 B8- | B4 G4 F6 F2 | E8 z4 G4 | c8 A8 | d8 B8 | e6 d2 c6 B2 | %37
w: bel-|la- pre- munt ho-|sti- li- a,|_ ho- sti- li-|a, da|ro- bur,|fer au-|xi- * * *|
 A4 G4 d8- | d4 B4 e8- | e4 c4 z8 | z8 d8 | z4 B4 G6 G2 | A16 | z4 G8 c4- | c4 A8 d4- | d4 B8 e4- | %46
w: * li- um,|_ da ro-|* bur,|fer|au- xi- li-|um,|da ro-|* bur, fer|_ a- xi-|
 e2 d2 c2 B2 A2 G2 c2 B2 | A4 B4 A8 | B8 z4 G4 | c8 A8 | d8 B8 | e6 e2 d8 | A4 d8 B4 | e8 c8 | %54
w: |* li- um,|_ da|ro- bur|fer au-|xi- li- um,|da ro- bur,|fer au-|
 d6 c2 B2 A2 G4- | G2 A2 B2 G2 A4 A4 | G8 B8 | c12 c4 | B16 |] %59
w: xi- * * * *|* * * * * li-|um, au-|xi- li-|um.|
V:4
 G,16 | E,8 C,8 | G,8 G,8 | A,12 A,4 | G,16 | z4 D,4 G,6 F,2 | E,4 C,4 C4 G,4 | A,4 B,4 A,8 | %8
w: O|sa- lu-|ta- ris|ho- sti-|a|quae coe- *|* li pan- dis|o- sti- um,|
 z4 B,4 D6 C2 | B,4 G,4 C4 G,4 | A,12 A,4 | D,8 D,8 | G,6 F,2 E,8 | G,8 A,8 | D,8 E,8- | %15
w: quae coe- *|* li pan- dis|o- sti-|um, quae|coe- * *|li, pan-|dis o-|
 E,4 E,4 D,8 | z8 G,8 | E,4 G,4 F,4 E,4 | D,4 F,4 G,8 | z16 | z8 G,8 | E,4 G,4 F,4 E,4 | %22
w: * sti- um,|bel-|la pre- munt ho-|sti- li- a,||bel-|la pre- munt ho-|
 D,4 A,4 B,8- | B,4 E,4 B,6 B,2 | E,8 z8 | z16 | E,8 C,4 E,4 | D,4 C,4 B,,4 D,4 | %28
w: sti- li- a,|_ ho- sti- li-|a,||bel- la pre-|munt ho- sti- li-|
 G,,4 G,4 E,4 G,4 | F,4 E,4 D,4 F,4 | G,8 z8 | z16 | E,8 B,,6 B,,2 | E,16 | z16 | z16 | z16 | %37
w: a, bel- la- pre-|munt ho- sti- li-|a,||ho- sti- li-|a,||||
 z8 D,8 | G,8 E,8 | A,8 F,8 | B,6 A,2 G,6 F,2 | E,12 E,4 | D,16 | G,,8 C,8 | A,,8 D,8 | %45
w: da|ro- bur,|fer au-|xi- * * *|* li-|um,|da ro-|burm fer|
 B,,8 E,6 D,2 | C,12 C,4 | D,8 D,8 | G,8 E,8 | A,8 F,8 | B,6 A,2 G,2 F,2 E,2 D,2 | C,4 C,4 D,8 | %52
w: au- xi- *|* li-|um, da|ro- bur,|fer au-|xi- * * * * *|* li- um|
 D,8 G,8 | E,8 A,8 | D,8 G,6 F,2 | E,4 E,4 D,8 | G,,8 G,8 | C,12 C,4 | G,,16 |] %59
w: da ro-|bur, fer|au- xi- *|* li- um,|au- *|xi- li-|um.|

